openmetadata-ui/src/main/resources/ui/src/assets/svg/icon-add-test.svg

<svg width="16" height="16" viewBox="0 0 16 16" fill="none" xmlns="http://www.w3.org/2000/svg">
<path d="M11.7512 7.57471H8.68723C8.56612 7.57471 8.46924 7.68582 8.46924 7.82471C8.46924 7.9636 8.56612 8.07471 8.68723 8.07471H11.7512C11.8724 8.07471 11.9692 7.9636 11.9692 7.82471C11.9692 7.68582 11.8724 7.57471 11.7512 7.57471Z" fill="#37352F" stroke="#37352F" stroke-width="0.4"/>
<path d="M11.7512 9.99731H8.68723C8.56612 9.99731 8.46924 10.1084 8.46924 10.2473C8.46924 10.3862 8.56612 10.4973 8.68723 10.4973H11.7512C11.8724 10.4973 11.9692 10.3862 11.9692 10.2473C11.9692 10.1084 11.8724 9.99731 11.7512 9.99731Z" fill="#37352F" stroke="#37352F" stroke-width="0.4"/>
<path d="M6.68531 9.56325L5.7841 10.491L5.30424 9.99699C5.22231 9.91265 5.09357 9.91265 5.01164 9.99699C4.92971 10.0813 4.92971 10.2139 5.01164 10.2982L5.63195 10.9367C5.71388 11.0211 5.84262 11.0211 5.92455 10.9367L6.9662 9.86446C7.04813 9.78012 7.04813 9.64759 6.9662 9.56325C6.89598 9.47892 6.76723 9.47892 6.68531 9.56325V9.56325Z" fill="#37352F" stroke="#37352F" stroke-width="0.25"/>
<path d="M11.7512 12.4199H8.68723C8.56612 12.4199 8.46924 12.531 8.46924 12.6699C8.46924 12.8088 8.56612 12.9199 8.68723 12.9199H11.7512C11.8724 12.9199 11.9692 12.8088 11.9692 12.6699C11.9692 12.531 11.8724 12.4199 11.7512 12.4199Z" fill="#37352F" stroke="#37352F" stroke-width="0.4"/>
<path d="M6.37338 12.0072L5.24201 13.1386C5.16394 13.2167 5.16394 13.3434 5.24201 13.4215C5.32007 13.4995 5.44679 13.4995 5.52485 13.4215L6.65622 12.2901C6.73429 12.212 6.73429 12.0853 6.65622 12.0072C6.57816 11.9292 6.45144 11.9292 6.37338 12.0072Z" fill="#37352F" stroke="#37352F" stroke-width="0.25"/>
<path d="M6.65609 13.1385L5.52472 12.0071C5.44666 11.9291 5.31994 11.9291 5.24188 12.0071C5.16381 12.0852 5.16381 12.2119 5.24188 12.29L6.37325 13.4214C6.45131 13.4994 6.57803 13.4994 6.65609 13.4214C6.73416 13.3433 6.73416 13.2166 6.65609 13.1385Z" fill="#37352F" stroke="#37352F" stroke-width="0.25"/>
<path fill-rule="evenodd" clip-rule="evenodd" d="M9.66625 3.08291H9.90323C10.0591 3.08291 10.1838 2.95457 10.1838 2.79414C10.1838 2.63371 10.0591 2.50537 9.90323 2.50537H9.52295C9.58176 2.69335 9.62977 2.88611 9.66625 3.08291Z" fill="#37352F"/>
<path d="M9.66625 3.08291L9.54334 3.10569L9.56229 3.20791H9.66625V3.08291ZM9.52295 2.50537V2.38037H9.35287L9.40365 2.54269L9.52295 2.50537ZM9.66625 3.20791H9.90323V2.95791H9.66625V3.20791ZM9.90323 3.20791C10.1315 3.20791 10.3088 3.02016 10.3088 2.79414H10.0588C10.0588 2.88897 9.98665 2.95791 9.90323 2.95791V3.20791ZM10.3088 2.79414C10.3088 2.56812 10.1315 2.38037 9.90323 2.38037V2.63037C9.98665 2.63037 10.0588 2.69931 10.0588 2.79414H10.3088ZM9.90323 2.38037H9.52295V2.63037H9.90323V2.38037ZM9.40365 2.54269C9.46098 2.72594 9.50778 2.91384 9.54334 3.10569L9.78915 3.06013C9.75175 2.85838 9.70254 2.66077 9.64225 2.46805L9.40365 2.54269Z" fill="#37352F"/>
<path fill-rule="evenodd" clip-rule="evenodd" d="M9.4707 5.65234H11.7514C11.8725 5.65234 11.9694 5.54123 11.9694 5.40234C11.9694 5.26345 11.8725 5.15234 11.7514 5.15234H9.61674C9.57659 5.32253 9.52775 5.48937 9.4707 5.65234Z" fill="#37352F"/>
<path d="M9.4707 5.65234L9.28193 5.58627L9.1888 5.85234H9.4707V5.65234ZM9.61674 5.15234V4.95234H9.45842L9.42208 5.10643L9.61674 5.15234ZM9.4707 5.85234H11.7514V5.45234H9.4707V5.85234ZM11.7514 5.85234C12.0078 5.85234 12.1694 5.62508 12.1694 5.40234H11.7694C11.7694 5.42555 11.7613 5.44082 11.7551 5.44799C11.7493 5.45461 11.7478 5.45234 11.7514 5.45234V5.85234ZM12.1694 5.40234C12.1694 5.17961 12.0078 4.95234 11.7514 4.95234V5.35234C11.7478 5.35234 11.7493 5.35008 11.7551 5.3567C11.7613 5.36387 11.7694 5.37913 11.7694 5.40234H12.1694ZM11.7514 4.95234H9.61674V5.35234H11.7514V4.95234ZM9.42208 5.10643C9.38355 5.26976 9.33668 5.42986 9.28193 5.58627L9.65947 5.71842C9.71882 5.54887 9.76963 5.37531 9.81139 5.19826L9.42208 5.10643Z" fill="#37352F"/>
<path fill-rule="evenodd" clip-rule="evenodd" d="M3.29545 8.78514C3.10878 8.72847 2.92673 8.66117 2.75 8.58396V13.7032C2.75 14.6979 3.52922 15.5 4.49545 15.5H13.0045C13.9708 15.5 14.75 14.6979 14.75 13.7032V3.80481C14.75 3.7246 14.7188 3.66043 14.6721 3.6123L11.7266 0.580214C11.6799 0.532086 11.6175 0.5 11.5396 0.5H8.32072C8.48774 0.670378 8.64267 0.85266 8.78411 1.04545H11.2591V2.95455C11.2591 3.58021 11.7578 4.07754 12.35 4.07754H14.2045V13.7032C14.2045 14.393 13.6591 14.9385 13.0045 14.9385H4.49545C3.84091 14.9385 3.29545 14.393 3.29545 13.7032V8.78514ZM13.8149 3.53209L11.8045 1.46257V2.97059C11.8045 3.2754 12.0383 3.53209 12.35 3.53209H13.8149Z" fill="#37352F"/>
<path d="M3.29545 8.78514H3.47045V8.65538L3.34629 8.61768L3.29545 8.78514ZM2.75 8.58396L2.82007 8.42359L2.575 8.31652V8.58396H2.75ZM14.6721 3.6123L14.5466 3.73424L14.5466 3.73424L14.6721 3.6123ZM11.7266 0.580214L11.6011 0.702151L11.6011 0.702151L11.7266 0.580214ZM8.32072 0.5V0.325H7.9041L8.19575 0.622508L8.32072 0.5ZM8.78411 1.04545L8.64301 1.14897L8.69545 1.22045H8.78411V1.04545ZM11.2591 1.04545H11.4341V0.870455H11.2591V1.04545ZM14.2045 4.07754H14.3795V3.90254H14.2045V4.07754ZM11.8045 1.46257L11.9301 1.34063L11.6295 1.03127V1.46257H11.8045ZM13.8149 3.53209V3.70709H14.2289L13.9405 3.41015L13.8149 3.53209ZM3.34629 8.61768C3.1662 8.56301 2.99057 8.49809 2.82007 8.42359L2.67993 8.74432C2.86288 8.82425 3.05136 8.89392 3.24462 8.95259L3.34629 8.61768ZM2.575 8.58396V13.7032H2.925V8.58396H2.575ZM2.575 13.7032C2.575 14.7897 3.42782 15.675 4.49545 15.675V15.325C3.63062 15.325 2.925 14.606 2.925 13.7032H2.575ZM4.49545 15.675H13.0045V15.325H4.49545V15.675ZM13.0045 15.675C14.0722 15.675 14.925 14.7897 14.925 13.7032H14.575C14.575 14.606 13.8694 15.325 13.0045 15.325V15.675ZM14.925 13.7032V3.80481H14.575V13.7032H14.925ZM14.925 3.80481C14.925 3.67501 14.8731 3.56813 14.7976 3.49036L14.5466 3.73424C14.5645 3.75273 14.575 3.77418 14.575 3.80481H14.925ZM14.7976 3.49036L11.8521 0.458276L11.6011 0.702151L14.5466 3.73424L14.7976 3.49036ZM11.8521 0.458277C11.7767 0.38056 11.6705 0.325 11.5396 0.325V0.675C11.5645 0.675 11.5831 0.683611 11.6011 0.702151L11.8521 0.458277ZM11.5396 0.325H8.32072V0.675H11.5396V0.325ZM8.19575 0.622508C8.35697 0.786962 8.5065 0.962899 8.64301 1.14897L8.92521 0.941938C8.77884 0.742421 8.61852 0.553795 8.44568 0.377492L8.19575 0.622508ZM8.78411 1.22045H11.2591V0.870455H8.78411V1.22045ZM11.0841 1.04545V2.95455H11.4341V1.04545H11.0841ZM11.0841 2.95455C11.0841 3.67369 11.658 4.25254 12.35 4.25254V3.90254C11.8576 3.90254 11.4341 3.48674 11.4341 2.95455H11.0841ZM12.35 4.25254H14.2045V3.90254H12.35V4.25254ZM14.0295 4.07754V13.7032H14.3795V4.07754H14.0295ZM14.0295 13.7032C14.0295 14.2997 13.5592 14.7635 13.0045 14.7635V15.1135C13.759 15.1135 14.3795 14.4864 14.3795 13.7032H14.0295ZM13.0045 14.7635H4.49545V15.1135H13.0045V14.7635ZM4.49545 14.7635C3.94085 14.7635 3.47045 14.2997 3.47045 13.7032H3.12045C3.12045 14.4864 3.74097 15.1135 4.49545 15.1135V14.7635ZM3.47045 13.7032V8.78514H3.12045V13.7032H3.47045ZM11.679 1.5845L13.6894 3.65402L13.9405 3.41015L11.9301 1.34063L11.679 1.5845ZM11.9795 2.97059V1.46257H11.6295V2.97059H11.9795ZM12.35 3.35709C12.1429 3.35709 11.9795 3.1869 11.9795 2.97059H11.6295C11.6295 3.36391 11.9337 3.70709 12.35 3.70709V3.35709ZM13.8149 3.35709H12.35V3.70709H13.8149V3.35709Z" fill="#37352F"/>
<circle cx="4.5" cy="3.75" r="3.25" stroke="#37352F" stroke-width="0.8"/>
<path d="M4.15039 2.35V5.15C4.15039 5.3432 4.30719 5.5 4.50039 5.5C4.69359 5.5 4.85039 5.3432 4.85039 5.15V2.35C4.85039 2.1568 4.69359 2 4.50039 2C4.30719 2 4.15039 2.1568 4.15039 2.35Z" fill="#37352F" stroke="#37352F" stroke-width="0.1"/>
<path d="M5.9 3.40015H3.1C2.9068 3.40015 2.75 3.55695 2.75 3.75015C2.75 3.94335 2.9068 4.10015 3.1 4.10015H5.9C6.0932 4.10015 6.25 3.94335 6.25 3.75015C6.25 3.55695 6.0932 3.40015 5.9 3.40015Z" fill="#37352F" stroke="#37352F" stroke-width="0.1"/>
</svg>

<svg xmlns="http://www.w3.org/2000/svg" width="16" height="16" fill="none"><path fill="#37352F" stroke="#37352F" stroke-width=".4" d="M11.751 7.575H8.687c-.12 0-.218.11-.218.25 0 .139.097.25.218.25h3.064c.121 0 .218-.111.218-.25 0-.14-.097-.25-.218-.25ZM11.751 9.997H8.687c-.12 0-.218.111-.218.25 0 .14.097.25.218.25h3.064c.121 0 .218-.11.218-.25 0-.139-.097-.25-.218-.25Z"/><path fill="#37352F" stroke="#37352F" stroke-width=".25" d="m6.685 9.563-.9.928-.48-.494a.2.2 0 0 0-.293 0 .215.215 0 0 0 0 .301l.62.639a.2.2 0 0 0 .293 0l1.041-1.073a.215.215 0 0 0 0-.3c-.07-.085-.199-.085-.28 0Z"/><path fill="#37352F" stroke="#37352F" stroke-width=".4" d="M11.751 12.42H8.687c-.12 0-.218.111-.218.25s.097.25.218.25h3.064c.121 0 .218-.111.218-.25s-.097-.25-.218-.25Z"/><path fill="#37352F" stroke="#37352F" stroke-width=".25" d="M6.373 12.007 5.242 13.14a.2.2 0 0 0 .283.283l1.131-1.132a.2.2 0 0 0-.283-.283Z"/><path fill="#37352F" stroke="#37352F" stroke-width=".25" d="m6.656 13.139-1.131-1.132a.2.2 0 0 0-.283.283l1.131 1.131a.2.2 0 0 0 .283-.282Z"/><path fill="#37352F" fill-rule="evenodd" d="M9.666 3.083h.237c.156 0 .28-.128.28-.289a.284.284 0 0 0-.28-.289h-.38c.059.188.107.381.143.578Z" clip-rule="evenodd"/><path fill="#37352F" d="m9.666 3.083-.123.023.02.102h.103v-.125Zm-.143-.578V2.38h-.17l.05.163.12-.038Zm.143.703h.237v-.25h-.237v.25Zm.237 0a.409.409 0 0 0 .406-.414h-.25a.159.159 0 0 1-.156.164v.25Zm.406-.414a.409.409 0 0 0-.406-.414v.25c.084 0 .156.07.156.164h.25Zm-.406-.414h-.38v.25h.38v-.25Zm-.5.163c.058.183.105.37.14.563l.246-.046a5.09 5.09 0 0 0-.147-.592l-.238.075Z"/><path fill="#37352F" fill-rule="evenodd" d="M9.47 5.652h2.281c.122 0 .218-.11.218-.25 0-.139-.096-.25-.218-.25H9.617a4.96 4.96 0 0 1-.146.5Z" clip-rule="evenodd"/><path fill="#37352F" d="m9.47 5.652-.188-.066-.093.266h.282v-.2Zm.147-.5v-.2h-.159l-.036.154.195.046Zm-.146.7h2.28v-.4h-2.28v.4Zm2.28 0c.257 0 .418-.227.418-.45h-.4a.07.07 0 0 1-.014.046c-.006.007-.007.004-.004.004v.4Zm.418-.45c0-.222-.161-.45-.418-.45v.4c-.003 0-.002-.002.004.005a.07.07 0 0 1 .014.045h.4Zm-.418-.45H9.617v.4h2.134v-.4Zm-2.329.154a4.76 4.76 0 0 1-.14.48l.377.132c.06-.17.11-.343.152-.52l-.389-.092Z"/><path fill="#37352F" fill-rule="evenodd" d="M3.295 8.785a4.965 4.965 0 0 1-.545-.201v5.12c0 .994.78 1.796 1.745 1.796h8.51c.966 0 1.745-.802 1.745-1.797V3.805a.27.27 0 0 0-.078-.193L11.727.58A.254.254 0 0 0 11.54.5H8.32c.168.17.323.353.464.545h2.475v1.91c0 .625.499 1.123 1.091 1.123h1.854v9.625c0 .69-.545 1.236-1.2 1.236H4.495c-.654 0-1.2-.546-1.2-1.236V8.785Zm10.52-5.253-2.01-2.07v1.509a.55.55 0 0 0 .545.561h1.465Z" clip-rule="evenodd"/><path fill="#37352F" d="M3.295 8.785h.175v-.13l-.124-.037-.05.167Zm-.545-.201.07-.16-.245-.107v.267h.175Zm11.922-4.972-.125.122.125-.122ZM11.727.58 11.6.702l.126-.122ZM8.32.5V.325h-.417l.292.298L8.32.5Zm.463.545-.141.104.052.071h.09v-.175Zm2.475 0h.175V.87h-.175v.175Zm2.945 3.033h.175v-.175h-.175v.175Zm-2.4-2.615.126-.122-.3-.31v.432h.175Zm2.01 2.07v.174h.415l-.288-.297-.126.122ZM3.347 8.617a4.787 4.787 0 0 1-.526-.194l-.14.32c.183.08.371.15.565.209l.101-.335Zm-.771-.034v5.12h.35v-5.12h-.35Zm0 5.12c0 1.086.853 1.971 1.92 1.971v-.35c-.864 0-1.57-.719-1.57-1.622h-.35Zm1.92 1.971h8.51v-.35h-8.51v.35Zm8.51 0c1.067 0 1.92-.885 1.92-1.972h-.35c0 .903-.706 1.622-1.57 1.622v.35Zm1.92-1.972V3.805h-.35v9.898h.35Zm0-9.898a.445.445 0 0 0-.127-.315l-.251.244c.018.019.028.04.028.07h.35Zm-.127-.315L11.852.458l-.25.244 2.945 3.032.25-.244ZM11.852.458a.43.43 0 0 0-.312-.133v.35a.08.08 0 0 1 .061.027l.251-.244ZM11.54.325H8.32v.35h3.22v-.35ZM8.196.623c.161.164.31.34.447.526l.282-.207a5.2 5.2 0 0 0-.48-.565l-.25.246Zm.588.597h2.475V.87H8.784v.35Zm2.3-.175v1.91h.35v-1.91h-.35Zm0 1.91c0 .719.574 1.298 1.266 1.298v-.35c-.492 0-.916-.416-.916-.948h-.35Zm1.266 1.298h1.854v-.35H12.35v.35Zm1.68-.175v9.625h.35V4.078h-.35Zm0 9.625c0 .597-.47 1.06-1.025 1.06v.35c.754 0 1.374-.627 1.374-1.41h-.35Zm-1.025 1.06h-8.51v.35h8.51v-.35Zm-8.51 0c-.554 0-1.025-.463-1.025-1.06h-.35c0 .783.621 1.41 1.375 1.41v-.35Zm-1.025-1.06V8.785h-.35v4.918h.35ZM11.68 1.585l2.01 2.069.252-.244-2.01-2.07-.252.244Zm.3 1.386V1.463h-.35V2.97h.35Zm.371.386a.375.375 0 0 1-.37-.386h-.35c0 .393.304.736.72.736v-.35Zm1.465 0H12.35v.35h1.465v-.35Z"/><circle cx="4.5" cy="3.75" r="3.25" stroke="#37352F" stroke-width=".8"/><path fill="#37352F" stroke="#37352F" stroke-width=".1" d="M4.15 2.35v2.8a.35.35 0 0 0 .7 0v-2.8a.35.35 0 0 0-.7 0Z"/><path fill="#37352F" stroke="#37352F" stroke-width=".1" d="M5.9 3.4H3.1a.35.35 0 0 0 0 .7h2.8a.35.35 0 0 0 0-.7Z"/></svg>
